X:1
T:Take, O Take Those Lips Away
T:Take, O Take Those Lips Away
T:Copyright © CPDL
T:Copyright © CPDL
T:Copyright © CPDL
T:Copyright © CPDL
Z:Copyright © CPDL
%%score 1 ( 2 3 ) ( 4 5 )
L:1/8
Q:1/4=80
M:3/4
K:Bb
V:1 treble nm="P1"
V:2 treble nm="P2"
V:3 treble 
V:4 bass nm="P3"
V:5 bass 
V:1
"^Editor: John Henry Fowler""^(  Revision:   4 - 22 - 2008  )""^Lento." z2"^From William Shakespeare's \"Measure for measure\".""^From \"English Lyrics\" -  Set 2 -  Number 2" z4 | %1
w: |
 z6 |"^Charles Hubert Hastings Parry""^( 1848 - 1918 )" z6 |!mf! z2 F3!<(! F | %4
w: ||Take, O|
 GB d>!<)!!>(!c!>)! c2 | z2!<(! G2!<)! B2 | !>!B3 C (3(AG)E | (^C2 D2)!p! F>F | G3 z2 B | %9
w: take those lips a- way|That so|sweet- ly were _ for-|sworn; _ And those|eyes, the|
 A>!<(!G!<)! d4 |!f! f>!>(!d cB A>!>)!=E | (G2 F2) z2 | z4!mp! _GG |"^cresc." B!<(!_d d>E!<)! E2 | %14
w: break of day,|Lights that do mis- lead the|morn; _|But my|kis- ses bring a- gain,|
 z2 z2!mf!!<(! e2- | e>!<)!!>(!d!>)! F2 z2 |"^cresc."!<(! (B2 c2)!<)! d2 |!f! g3 e!>(! e>=B!>)! | %18
w: Bring|_ a- gain:|seals _ of|love, but seal'd in|
 (d2 c2) z2 | z2!p!!<)!!<(! c4- | c4!>(! C2!>)! | _G4 z2 | z6 |] %23
w: vain _|Seal'd|_ in|vain.||
V:2
!p! z"^cresc." (!>![F,B,D]2!<(! [F,B,D] [G,B,E]!<)![B,EG]) | ([DFB] [B,DF]2 [B,DF] [B,EG][EGB] | %2
 [FBd]) !>![B,DF]2 [B,DF] [DFB][FBd] | !>![Bdf]4 z2 | z4 z[K:bass] [=E,B,C] | %5
 [=E,B,C]!<(! [E,B,C]2 [E,B,C] [D,B,C]!<)![C,B,C] | [_E,B,C] [E,B,C]2 [E,B,C] [E,A,C][E,A,F] | %7
 [E,A,F] [E,A,]2 [D,B,]!p! [B,D][B,D] | [B,D] [B,D]2 [B,D] [A,B,D][G,B,D] | %9
 [D,B,D] [D,B,D]2[K:treble]!<(! [B,DG] [DGB]!<)![GBd] | %10
 [FGBf] [G,B,D]2!>(! [G,B,D] [G,B,D]!>)![G,B,=E] | [G,B,=E] [G,B,E]2 [A,CF] [F,F][F,F] | %12
"^poco marcato" _G3 G [GB][G_d] |!<(! _d3 _G!<)! [_DGB][DGd] | _g2!<(! gf c>!<)!_A | %15
!>(! _a2 z (_A!>)! =Ac) |"^cresc." z!<(! [B,F]2!<)! [A,EF]2 [_A,DF] | %17
 [G,DG] [G,DG]2!>(! [G,CG] z!>)! [G,=B,G] | z [G,G]2 c (c>G) | !>!B2 _A2 _G2 | (F2 E) z z2 | %21
 z [A,E] [A,D]2[K:bass] [A,C]2 | ([E,A,C]2 B,2) z2 |] %23
V:3
 x6 | x6 | x6 | x6 | x5[K:bass] x | x6 | x6 | x6 | x6 | x3[K:treble] x3 | x6 | x6 | _D D2 D DD | %13
 [_D_G] [DG]2 D x2 | [_Gc] [Gc]2 [Gc] z E | [_A_d] [Ad]2 [_DF]2 C | x6 | x6 | x (=B, C) C2 C | %19
 z [B,E]2 [B,E]2 [B,E] | z B,2 x x2 | x4[K:bass] (E,F,) | (!>!_G,>F,) D,2 x2 |] %23
V:4
 z6 | z6 | z6 |!mf! z!p! [B,D]2 [B,D] [B,D][A,B,D] | [G,B,D][F,B,D] [=E,B,D] [E,B,C]2 z | z6 | %6
!>(! ([F,,,F,,]6!>)! | B,,,4) z2 |"^poco cresc." z6 | z2 z!<(! [D,,D,] [B,,,B,,]!<)![A,,,A,,] | %10
!f! [G,,,G,,]4!>)!!>(! [C,,C,]2 | [F,,,F,,]4!mp! z2 | [F,B,] [F,B,]2 [F,B,] [F,B,][F,B,] | %13
 [E,B,]"^cresc." [E,B,]2!<(! [E,B,] [E,B,]!<)![E,B,] | %14
!mf!!<(! z [E,_A,C]2 [E,A,C] z!<)! [_A,,C,A,] |!f!!>(! z [_A,,_D,_A,]2 [A,,D,A,] z!>)! [A,,=C,F,] | %16
 =D,,!<(![B,,F,] C,,[F,,F,]!<)! B,,,[B,,F,] |!f! z ([G,,=B,,D,]2 [G,,C,]) z [G,,D,F,] | %18
 z (D, E,) [C,E,]2 [C,E,] | z [E,,B,,_G,]2 [E,,B,,G,]2 [E,,B,,G,] | z ([B,,D,] [B,,E,]) z z2 | %21
 z!<(! [F,,C,] [F,,D,]2!<)! [F,,,F,,]2 |!>(! [B,,,F,,]4!>)!!pp! z2 |] %23
V:5
 x6 | x6 | x6 | x6 | x6 | x6 | x6 | x6 | x6 | x6 | x6 | x6 | x6 | x6 | [_A,,,_A,,]4 [_G,,,_G,,]2 | %15
 [F,,,F,,]2 x2 [E,,,E,,]2 | D,,2 C,,2 B,,,2 | [E,,,E,,]4 [G,,,G,,]2 | C,,4 x2 | x6 | %20
 [_G,,,_G,,]2 x2 x2 | x6 | x6 |] %23

